X:8881
T:La Condesita
R:Romance
C:Tradicional
S:Música Tradicional Asturiana, (C) Tello & Tito. Asturies, 2001.
S:http://pagina.de/MusTradAst <telloytito@asturies.org>
N:Versión 2
O:Teberga
A:Asturies
Z:DyC en Teberga
M:3/4
L:1/8
Q:1/4=72
K:Fm
C C |: F3 G A _B|
M:2/4
|c2 F2|_A2 G2|F4-|F2 C C|
M:3/4
|F3 G A B|
M:2/4
|c c c d|
M:3/4
|c d c2 _B2|
M:2/4
|A2 _B c|
M:3/4
|_B _B _A2 G2|
M:2/4
|F4-|[1 F2 C C :|[2 F2 z2|


